icon-themes/breeze_svg/cmd/sc_shear.svg

<svg viewBox="0 0 16 16" xmlns="http://www.w3.org/2000/svg">/&gt;<path d="m4 2-2 3h1v6h-1l2 3zm1 0v4 2 4l6 2v-6-2-2zm7 0v12l2-3h-1v-6h1zm-6 1.40625 4 1.3125v1.28125 2 4.59375l-4-1.34375v-3.25-2z" fill="#4d4d4d"/></svg>

<svg xmlns="http://www.w3.org/2000/svg" viewBox="0 0 16 16">
     />
 <path 
     style="fill:#4d4d4d" 
     d="M 4 2 L 2 5 L 3 5 L 3 11 L 2 11 L 4 14 L 4 2 z M 5 2 L 5 6 L 5 8 L 5 12 L 11 14 L 11 8 L 11 6 L 11 4 L 5 2 z M 12 2 L 12 14 L 14 11 L 13 11 L 13 5 L 14 5 L 12 2 z M 6 3.40625 L 10 4.71875 L 10 6 L 10 8 L 10 12.59375 L 6 11.25 L 6 8 L 6 6 L 6 3.40625 z "
     />
 </svg>
